X:1
T:Englis
T:(Totakt-pols, nr. Biehl-8)
S:efter Erik Jensen
R:Totakt-pols
O:Boes, rhus amt, Danmark
N:Lt nr. 14 p CD:n "Totakt-pols" av ke Persson, Ethel Wieslander m fl. Till CD:n finns ett nothfte dr den har beteckningen Biehl-8. Danmark|Fler ltar frn Danmark...
M:2/4
L:1/16
K:C
V:1
|: C2E2 G2c2 | B2dB G4 | G2B2 d2f2 | e2ge c4 | .[ec]2.[ec]2 .[fd]2.[fd]2| .[dB]2.[dB]2 .[ec]2.[ec]2 | .c2.c2 .d2.d2 | {c}B2AB c4 :|
|: [dBG]4 {c}B2AG | [dBG]4 {c}B2AG | [gec2][gec2] (fe)(dc) | .[ec]2.[ec]2 .[fd]2.[fd]2| .[dB]2.[dB]2 .[ec]2.[ec]2 | .c2.c2 .d2.d2 | {c}B2AB c4 :|
